X:329
T:Round
C:Henry Purcell
O:England
F:http://abc.musicaviva.com/tunes/purcell-henry/purcell-round.abc
M:3/4
L:1/4
Q:1/4=132
K:D
"^1"ddd|ccc|BBB|A2A|
GGG|FFF|EEE|D3|
"^2"fff|eee|ddd|c2c|
BBB|AAA|GGG|F3|
"^3"dd/e/ f/g/|aAA|BB/c/ d/e/|f2F|
GG/A/ B/c/|dDD|GEc|d3|]
W:
W:
W:  From Musica Viva - http://www.musicaviva.com
W:  the Internet center for free sheet music downloads.

